svg/300/sharp/movie_off.svg

<svg xmlns="http://www.w3.org/2000/svg" width="48" height="48" viewBox="0 -960 960 960"><path d="M100.001-180.001v-599.998h76.154l179.69 179.69h-210.46v374.924h585.384l45.383 45.384H100.001Zm759.998-9.078-45.384-45.383v-365.847H448.769l-179.306-179.69h69.923l67.076 137.384-3.077-3.077h128.846l-65.538-134.307h121.923l65.538 134.307h127.307l-65.538-134.307h144.076v590.92ZM809.923-81.386 81.386-809.923l32.615-32.23 728.152 728.152-32.23 32.615ZM478.078-412.847Zm153.998-.692Z"/></svg>

<svg xmlns="http://www.w3.org/2000/svg" width="48" height="48" viewBox="0 -960 960 960"><path d="M100-180v-600h76.16l179.68 179.69H145.39v374.92h585.38L776.15-180H100Zm760-9.08-45.39-45.38v-365.85H448.77L269.46-780h69.93l67.07 137.39-3.07-3.08h128.84L466.69-780h121.93l65.53 134.31h127.31L715.92-780H860v590.92ZM809.92-81.39 81.39-809.92 114-842.15 842.15-114l-32.23 32.61ZM478.08-412.85Zm154-.69Z"/></svg>
